symbols/web/picture_as_pdf/materialsymbolssharp/picture_as_pdf_gradN25_20px.svg

<svg xmlns="http://www.w3.org/2000/svg" height="20" width="20"><path d="M7.688 10.333H8.5V8.792h.771q.333 0 .573-.23.239-.229.239-.562v-.812q0-.334-.239-.563-.24-.229-.573-.229H7.688ZM8.5 7.979v-.791h.792v.791Zm2.333 2.354h1.563q.354 0 .583-.239.229-.24.229-.573V7.188q0-.334-.229-.563-.229-.229-.562-.229h-1.584Zm.813-.812V7.188h.771v2.333Zm2.396.812h.791V8.792h.834v-.813h-.834v-.791h.834v-.792h-1.625Zm-8.875 4.5V1.875h12.958v12.958Zm1.645-1.645h9.667V3.521H6.812Zm-4.937 4.937V5.167h1.646v11.312h11.312v1.646Zm4.937-4.937V3.521v9.667Z"/></svg>

<svg xmlns="http://www.w3.org/2000/svg" height="20" width="20"><path d="M7.688 10.333H8.5V8.792H9.271Q9.604 8.792 9.844 8.562Q10.083 8.333 10.083 8V7.188Q10.083 6.854 9.844 6.625Q9.604 6.396 9.271 6.396H7.688ZM8.5 7.979V7.188H9.292V7.979ZM10.833 10.333H12.396Q12.75 10.333 12.979 10.094Q13.208 9.854 13.208 9.521V7.188Q13.208 6.854 12.979 6.625Q12.75 6.396 12.417 6.396H10.833ZM11.646 9.521V7.188H12.417V9.521ZM14.042 10.333H14.833V8.792H15.667V7.979H14.833V7.188H15.667V6.396H14.042ZM5.167 14.833V1.875H18.125V14.833ZM6.812 13.188H16.479V3.521H6.812ZM1.875 18.125V5.167H3.521V16.479H14.833V18.125ZM6.812 13.188V3.521V13.188Z"/></svg>
